static/card-icons/erase.svg

<svg enable-background="new 0 0 24.4 24" viewBox="0 0 24.4 24" xmlns="http://www.w3.org/2000/svg"><g clip-rule="evenodd" fill-rule="evenodd"><path d="m24.1 7.4-7.1-7.1c-.1-.2-.4-.3-.6-.3-.3 0-.5.1-.7.3l-15 14.9c-.2.2-.3.5-.3.7 0 .3.1.5.3.7l.9.9c.4-.5.8-1.2 1.4-1.5l-.1-.1 1.4-1.4.4.4c.4-.6.8-1 1.4-1.5l-.4-.4 10.7-10.6 5.6 5.7-.4.4c.5.4 1 .9 1.3 1.5l1.2-1.2c.2-.2.3-.5.3-.7 0-.3-.1-.5-.3-.7z" fill="#01ddbb"/><path d="m5.7 24-5.4-5.4c-.2-.2-.3-.4-.3-.7s.1-.5.3-.7l14.9-14.9c.2-.2.5-.3.7-.3.3 0 .5.1.7.3l7.1 7.1c.2.2.3.5.3.7 0 .3-.1.5-.3.7l-11.2 11.2h5.5v2zm3.6-2-5.5-5.5-1.4 1.4 4.1 4.1zm6.6-17.6-10.7 10.7 5.7 5.7 10.7-10.7s-5.7-5.7-5.7-5.7z" fill="#003bff"/></g></svg>

<svg viewBox="0 0 24.4 24" xmlns="http://www.w3.org/2000/svg"><g clip-rule="evenodd" fill-rule="evenodd"><path d="M24.1 7.4L17 .3c-.1-.2-.4-.3-.6-.3-.3 0-.5.1-.7.3L.7 15.2c-.2.2-.3.5-.3.7 0 .3.1.5.3.7l.9.9C2 17 2.4 16.3 3 16l-.1-.1 1.4-1.4.4.4c.4-.6.8-1 1.4-1.5l-.4-.4L16.4 2.4 22 8.1l-.4.4c.5.4 1 .9 1.3 1.5l1.2-1.2c.2-.2.3-.5.3-.7 0-.3-.1-.5-.3-.7z" fill="#00ffd8"/><path d="M5.7 24L.3 18.6c-.2-.2-.3-.4-.3-.7s.1-.5.3-.7L15.2 2.3c.2-.2.5-.3.7-.3.3 0 .5.1.7.3l7.1 7.1c.2.2.3.5.3.7 0 .3-.1.5-.3.7L12.5 22H18v2zm3.6-2l-5.5-5.5-1.4 1.4L6.5 22zm6.6-17.6L5.2 15.1l5.7 5.7 10.7-10.7-5.7-5.7z" fill="#003bff"/></g></svg>
